material/.icons/material/file-download-outline.svg

<svg xmlns="http://www.w3.org/2000/svg" viewBox="0 0 24 24"><path d="M14 2l6 6v12a2 2 0 01-2 2H6a2 2 0 01-2-2V4a2 2 0 012-2h8m4 18V9h-5V4H6v16h12m-6-1l-4-4h2.5v-3h3v3H16l-4 4z"/></svg>

<?xml version="1.0" encoding="UTF-8"?><!DOCTYPE svg PUBLIC "-//W3C//DTD SVG 1.1//EN" "http://www.w3.org/Graphics/SVG/1.1/DTD/svg11.dtd"><svg xmlns="http://www.w3.org/2000/svg" xmlns:xlink="http://www.w3.org/1999/xlink" version="1.1" id="mdi-file-download-outline" width="24" height="24" viewBox="0 0 24 24"><path d="M14,2L20,8V20A2,2 0 0,1 18,22H6A2,2 0 0,1 4,20V4A2,2 0 0,1 6,2H14M18,20V9H13V4H6V20H18M12,19L8,15H10.5V12H13.5V15H16L12,19Z" /></svg>
